src/img/icons/icon-plan.svg

<?xml version="1.0" encoding="iso-8859-1"?>
<!-- Generator: Adobe Illustrator 19.0.0, SVG Export Plug-In . SVG Version: 6.00 Build 0)  -->
<svg xmlns="http://www.w3.org/2000/svg" xmlns:xlink="http://www.w3.org/1999/xlink" version="1.1" id="Capa_1" x="0px" y="0px" viewBox="0 0 512 512" style="enable-background:new 0 0 512 512;" xml:space="preserve" width="512" height="512">
<g>
	<path d="M90.048,60.048V0H45.024C20.198,0,0,20.198,0,45.024v421.951C0,491.802,20.198,512,45.024,512H512V60.048H90.048z    M30,45.024C30,36.74,36.74,30,45.024,30h15.024v391.952H45.024c-5.266,0-10.323,0.909-15.024,2.577V45.024z M482,482H45.024   C36.74,482,30,475.26,30,466.976s6.74-15.023,15.024-15.023h45.024V90.048H482V482z"/>
	<path d="M452,452V120.048H120.048V452H452z M150.048,351.35h70.651V422h-70.651V351.35z M150.048,321.35v-70.651h40.627v70.651   H150.048z M250.699,422v-70.65H422V422H250.699z M361.072,220.675H422V321.35h-60.928V220.675z M422,190.675h-60.928v-40.627H422   V190.675z M331.072,150.048v70.65h-30.036v30h30.036v70.651H220.675v-70.651h50.337v-30H150.048v-70.65H331.072z"/>
</g>















</svg>

<svg width="512" height="512" viewBox="0 0 512 512" fill="none" xmlns="http://www.w3.org/2000/svg">
<path d="M90.048 60.048V0H45.024C20.198 0 0 20.198 0 45.024V466.975C0 491.802 20.198 512 45.024 512H512V60.048H90.048ZM30 45.024C30 36.74 36.74 30 45.024 30H60.048V421.952H45.024C39.758 421.952 34.701 422.861 30 424.529V45.024ZM482 482H45.024C36.74 482 30 475.26 30 466.976C30 458.692 36.74 451.953 45.024 451.953H90.048V90.048H482V482Z" fill="currentColor"/>
<path d="M452 452V120.048H120.048V452H452ZM150.048 351.35H220.699V422H150.048V351.35ZM150.048 321.35V250.699H190.675V321.35H150.048ZM250.699 422V351.35H422V422H250.699ZM361.072 220.675H422V321.35H361.072V220.675ZM422 190.675H361.072V150.048H422V190.675ZM331.072 150.048V220.698H301.036V250.698H331.072V321.349H220.675V250.698H271.012V220.698H150.048V150.048H331.072Z" fill="currentColor"/>
</svg>
